source/images/icons/icon-editorial/personnes.svg

<?xml version="1.0" encoding="UTF-8"?>
<svg width="80px" height="80px" viewBox="0 0 80 80" version="1.1" xmlns="http://www.w3.org/2000/svg" xmlns:xlink="http://www.w3.org/1999/xlink">
    <!-- Generator: Sketch 55.2 (78181) - https://sketchapp.com -->
    <title>Illustrative Icons/Personnes</title>
    <desc>Created with Sketch.</desc>
    <g id="Illustrative-Icons/Personnes" stroke="none" stroke-width="1" fill="none" fill-rule="evenodd">
        <path d="M40,27 C45.5228475,27 50,22.5228475 50,17 C50,11.4771525 45.5228475,7 40,7 C34.4771525,7 30,11.4771525 30,17 C30.006429,22.5201824 34.4798177,26.9935711 40,27 L40,27 Z M40,10.3333333 C43.6818984,10.3333333 46.6666667,13.3181017 46.6666667,17 C46.6666667,20.6818983 43.6818984,23.6666667 40,23.6666667 C36.3181017,23.6666667 33.3333334,20.6818983 33.3333334,17 C33.3333334,13.3181017 36.3181017,10.3333333 40,10.3333333 Z M16.6666667,33.6666667 C21.2690396,33.6666667 25,29.9357063 25,25.3333334 C25,20.7309604 21.2690396,17 16.6666667,17 C12.0642938,17 8.33333334,20.7309604 8.33333334,25.3333334 C8.33884353,29.9334219 12.0665781,33.6611565 16.6666667,33.6666667 L16.6666667,33.6666667 Z M16.6666667,20.3333334 C19.4280904,20.3333334 21.6666667,22.5719096 21.6666667,25.3333334 C21.6666667,28.0947571 19.4280904,30.3333334 16.6666667,30.3333334 C13.9052429,30.3333334 11.6666667,28.0947571 11.6666667,25.3333334 C11.6666667,22.5719096 13.9052429,20.3333334 16.6666667,20.3333334 Z M73.3333334,57.0000001 C74.253808,57.0000001 75,56.253808 75,55.3333334 C74.9952781,50.5950487 72.1252321,46.3302445 67.7375383,44.541528 C63.3498445,42.7528115 58.3161078,43.795507 55,47.1800001 L55,45.3333334 C55.0005508,37.8615575 49.5020158,31.5286364 42.1041158,30.4805377 C34.7062157,29.432439 27.6649426,33.9887806 25.59,41.1666667 C22.4348177,37.4205151 17.2757124,36.0439266 12.6736697,37.7202414 C8.07162707,39.3965561 5.00657153,43.768832 5,48.6666667 C5,49.5871413 5.74619208,50.3333334 6.66666667,50.3333334 C7.58714125,50.3333334 8.33333334,49.5871413 8.33333334,48.6666667 C8.33333334,44.0642938 12.0642938,40.3333334 16.6666667,40.3333334 C21.2690396,40.3333334 25,44.0642938 25,48.6666667 L25,72.0000001 C25,72.9204747 25.7461921,73.6666668 26.6666667,73.6666668 C27.5871413,73.6666668 28.3333334,72.9204747 28.3333334,72.0000001 L28.3333334,45.3333334 C28.3333334,38.8900113 33.556678,33.6666667 40,33.6666667 C46.4433221,33.6666667 51.6666667,38.8900113 51.6666667,45.3333334 L51.6666667,62.0000001 C51.6666667,62.9204747 52.4128588,63.6666667 53.3333334,63.6666667 C54.253808,63.6666667 55,62.9204747 55,62.0000001 L55,55.3333334 C55,50.7309606 58.7309606,47.0000003 63.3333334,47.0000003 C67.9357062,47.0000003 71.6666666,50.7309606 71.6666667,55.3333334 C71.6666667,56.253808 72.4128588,57.0000001 73.3333334,57.0000001 Z M63.3333334,40.3333334 C67.0152317,40.3333334 70.0000001,37.348565 70.0000001,33.6666667 C70.0000001,29.9847684 67.0152317,27 63.3333334,27 C59.6514351,27 56.6666667,29.9847684 56.6666667,33.6666667 C56.6666667,37.348565 59.6514351,40.3333334 63.3333334,40.3333334 Z M63.3333334,30.3333334 C65.1742826,30.3333334 66.6666667,31.8257175 66.6666667,33.6666667 C66.6666667,35.5076159 65.1742826,37 63.3333334,37 C61.4923842,37 60.0000001,35.5076159 60.0000001,33.6666667 C60.0000001,31.8257175 61.4923842,30.3333334 63.3333334,30.3333334 Z M73.3333334,63.6666667 C74.253808,63.6666667 75.0000001,62.9204747 75.0000001,62.0000001 C75.0000001,61.0795255 74.253808,60.3333334 73.3333334,60.3333334 C72.4128588,60.3333334 71.6666668,61.0795255 71.6666668,62.0000001 C71.6666668,62.9204747 72.4128588,63.6666667 73.3333334,63.6666667 Z" id="Shape-color" fill="#ADB5BD"></path>
    </g>
</svg>

<svg width="80" height="80">
    <title>
        Illustrative Icons/Personnes
    </title>
    <path d="M40 27c5.523 0 10-4.477 10-10S45.523 7 40 7s-10 4.477-10 10c.006 5.52 4.48 9.994 10 10zm0-16.667a6.667 6.667 0 1 1 0 13.334 6.667 6.667 0 0 1 0-13.334zM16.667 33.667a8.333 8.333 0 1 0-8.334-8.334 8.343 8.343 0 0 0 8.334 8.334zm0-13.334a5 5 0 1 1 0 10 5 5 0 0 1 0-10zM73.333 57c.92 0 1.667-.746 1.667-1.667a11.667 11.667 0 0 0-20-8.153v-1.847a15 15 0 0 0-29.41-4.166A11.667 11.667 0 0 0 5 48.667a1.667 1.667 0 1 0 3.333 0 8.333 8.333 0 0 1 16.667 0V72a1.667 1.667 0 0 0 3.333 0V45.333c0-6.443 5.224-11.666 11.667-11.666s11.667 5.223 11.667 11.666V62A1.667 1.667 0 0 0 55 62v-6.667a8.333 8.333 0 0 1 16.667 0c0 .92.746 1.667 1.666 1.667zm-10-16.667a6.667 6.667 0 1 0 0-13.333 6.667 6.667 0 0 0 0 13.333zm0-10a3.333 3.333 0 1 1 0 6.667 3.333 3.333 0 0 1 0-6.667zm10 33.334a1.667 1.667 0 1 0 0-3.334 1.667 1.667 0 0 0 0 3.334z" fill="#ADB5BD" fill-rule="evenodd"/>
</svg>
